assets/icon-snowflake.svg

<svg
  class="icon icon-accordion icon-snowflake"

  focusable="false"
  xmlns="http://www.w3.org/2000/svg"


  viewBox="0 0 20 20"
>
  <path d="M10 0.5C10.2761 0.5 10.5 0.723858 10.5 1V2.85676L12.3862 1.70941C12.6222 1.5659 12.9253 1.64343 13.0634 1.88258C13.2015 2.12173 13.1222 2.43193 12.8862 2.57544L10.6881 3.91254L10.5 4.20171V9.10567L14.7324 6.5025L14.7497 6.47255L14.9238 3.70441C14.9413 3.4261 15.1766 3.21512 15.4494 3.23315C15.7222 3.25118 15.9292 3.49141 15.9116 3.76971L15.7803 5.85797L17.4941 4.80383C17.7293 4.65916 18.0331 4.73508 18.1726 4.9734C18.3121 5.21172 18.2345 5.5222 17.9993 5.66687L16.1725 6.79045L18.1852 8.00596C18.4192 8.1473 18.4959 8.45767 18.3565 8.69919C18.217 8.9407 17.9143 9.02191 17.6802 8.88057L15.5078 7.56859L14.9656 7.53275L10.9676 9.99182L15.1203 12.4496H15.3615L17.7806 11.2234C18.0245 11.0998 18.3204 11.2032 18.4416 11.4544C18.5627 11.7056 18.4632 12.0094 18.2194 12.133L16.2618 13.1252L18.0691 14.1948C18.3067 14.3355 18.3895 14.6446 18.254 14.8852C18.1185 15.1258 17.816 15.2068 17.5784 15.0661L15.794 14.0101L15.7868 16.2668C15.7859 16.5457 15.5636 16.7717 15.2902 16.7717C15.0168 16.7717 14.7959 16.5457 14.7968 16.2668L14.8051 13.6677L14.6411 13.3278L10.5 10.8769V15.7983L10.6881 16.0875L12.8862 17.4246C13.1222 17.5681 13.2015 17.8783 13.0634 18.1174C12.9253 18.3566 12.6221 18.4341 12.3862 18.2906L10.5 17.1432V19C10.5 19.2761 10.2761 19.5 10 19.5C9.72386 19.5 9.5 19.2761 9.5 19V17.1236L7.69032 18.3603C7.46233 18.5161 7.15546 18.4548 7.00491 18.2233C6.85436 17.9918 6.91714 17.6778 7.14513 17.522L9.37855 15.9957L9.5 15.7853V10.8945L5.28087 13.4895L5.19492 13.6677L5.2032 16.2668C5.20409 16.5457 4.98319 16.7717 4.70981 16.7717C4.43643 16.7717 4.21409 16.5457 4.21321 16.2668L4.20646 14.1503L2.50589 15.1963C2.27067 15.341 1.96692 15.265 1.82743 15.0267C1.68794 14.7884 1.76553 14.4779 2.00075 14.3332L3.86241 13.1882L1.78063 12.133C1.53676 12.0094 1.43728 11.7056 1.55844 11.4544C1.67959 11.2032 1.9755 11.0998 2.21937 11.2234L4.63853 12.4496H5.06329L9.03246 10.0083L4.86806 7.54362L4.49224 7.56846L2.31982 8.88045C2.08578 9.02179 1.78302 8.94058 1.64358 8.69906C1.50414 8.45755 1.58083 8.14718 1.81486 8.00584L3.71259 6.85976L1.93081 5.80522C1.69317 5.66458 1.61038 5.35551 1.74589 5.11491C1.8814 4.8743 2.1839 4.79327 2.42154 4.93391L4.2289 6.00359L4.08836 3.76959C4.07085 3.49129 4.27779 3.25106 4.55057 3.23303C4.82336 3.21499 5.05868 3.42598 5.07619 3.70428L5.25034 6.47231L5.36945 6.67862L9.5 9.12326V4.21468L9.37855 4.00432L7.14513 2.47799C6.91714 2.32219 6.85436 2.00822 7.00491 1.77672C7.15546 1.54523 7.46233 1.48387 7.69032 1.63968L9.5 2.87642V1C9.5 0.723858 9.72386 0.5 10 0.5Z"/>
</svg>

<svg xmlns="http://www.w3.org/2000/svg" class="icon icon-accordion icon-snowflake" viewBox="0 0 20 20"><path d="M10 .5a.5.5 0 0 1 .5.5v1.857l1.886-1.148a.486.486 0 0 1 .677.174c.138.239.06.549-.177.692l-2.198 1.338-.188.289v4.904l4.232-2.603.018-.03.174-2.769a.5.5 0 0 1 .525-.47c.273.017.48.257.463.536l-.132 2.088 1.714-1.054a.487.487 0 0 1 .679.17.513.513 0 0 1-.174.693L16.173 6.79l2.012 1.216c.234.141.31.452.172.693a.49.49 0 0 1-.677.182l-2.172-1.312-.542-.036-3.998 2.459 4.152 2.458h.242l2.419-1.227a.49.49 0 0 1 .66.231.51.51 0 0 1-.222.679l-1.957.992 1.807 1.07c.238.14.32.45.185.69a.487.487 0 0 1-.676.181l-1.784-1.056-.007 2.257a.5.5 0 0 1-.497.505.5.5 0 0 1-.493-.505l.008-2.6-.164-.34-4.141-2.45v4.921l.188.29 2.198 1.337a.514.514 0 0 1 .177.692.486.486 0 0 1-.677.174L10.5 17.143V19a.5.5 0 0 1-1 0v-1.876L7.69 18.36a.486.486 0 0 1-.685-.137.514.514 0 0 1 .14-.701l2.234-1.526.121-.21v-4.891L5.28 13.49l-.085.178.008 2.599c.001.279-.22.505-.493.505a.5.5 0 0 1-.497-.505l-.007-2.117-1.7 1.046a.487.487 0 0 1-.679-.17.513.513 0 0 1 .174-.693l1.861-1.145-2.081-1.055a.51.51 0 0 1-.223-.679.49.49 0 0 1 .661-.23l2.42 1.226h.424l3.97-2.442-4.165-2.464-.376.024L2.32 8.88a.49.49 0 0 1-.676-.18.51.51 0 0 1 .17-.694L3.714 6.86 1.93 5.805a.513.513 0 0 1-.185-.69.487.487 0 0 1 .676-.181l1.807 1.07-.14-2.234a.5.5 0 0 1 .462-.537.5.5 0 0 1 .525.471l.174 2.768.12.207L9.5 9.123V4.215l-.121-.21-2.234-1.527a.514.514 0 0 1-.14-.701.486.486 0 0 1 .685-.137L9.5 2.876V1a.5.5 0 0 1 .5-.5"/></svg>
